cheelee/dist/images/audited.svg

<svg width="177" height="58" viewBox="0 0 177 58" fill="none" xmlns="http://www.w3.org/2000/svg">
<rect x="0.430054" width="176.57" height="58" rx="29" fill="#7156FD" fill-opacity="0.2"/>
<path fill-rule="evenodd" clip-rule="evenodd" d="M51.7444 17.2117L51.9234 18.2936C52.0644 19.3001 52.1297 20.3157 52.1189 21.332C52.1177 23.5778 51.8468 25.8153 51.3119 27.9965C50.5886 30.9598 49.3287 33.7656 47.5948 36.2749C45.591 39.1569 42.6938 41.9915 38.4706 44.2691L37.954 44.5475L37.4374 44.2691C33.2142 41.9915 30.3182 39.1569 28.3133 36.2749C26.5793 33.7656 25.3194 30.9598 24.5961 27.9965C24.0613 25.8157 23.7904 23.5786 23.7891 21.3332C23.7782 20.3169 23.8436 19.3012 23.9846 18.2948L24.1636 17.2128C24.1788 17.1246 24.1765 17.0342 24.1567 16.9469C24.1369 16.8596 24.1 16.777 24.0481 16.704C23.9963 16.631 23.9305 16.569 23.8545 16.5216C23.7786 16.4741 23.694 16.4422 23.6057 16.4275C23.5173 16.4129 23.427 16.4159 23.3398 16.4364C23.2526 16.4568 23.1704 16.4944 23.0978 16.5468C23.0252 16.5992 22.9636 16.6654 22.9168 16.7417C22.8699 16.818 22.8385 16.9028 22.8246 16.9913L22.6457 18.0732C22.4917 19.1528 22.4201 20.2426 22.4312 21.3332C22.432 23.6892 22.7161 26.0365 23.2772 28.3247C24.0411 31.4495 25.3708 34.4079 27.2006 37.0535C29.3157 40.0978 32.3836 43.0912 36.7987 45.4671L37.6376 45.9185C37.7365 45.972 37.847 46 37.9593 46C38.0716 46 38.1822 45.972 38.281 45.9185L39.1188 45.4671C43.5292 43.09 46.5982 40.0978 48.7169 37.0535C50.5458 34.4081 51.8747 31.4501 52.6378 28.3259C53.199 26.0377 53.4831 23.6904 53.4839 21.3344C53.4951 20.2438 53.4233 19.154 53.2695 18.0744L53.0905 16.9924C53.0766 16.904 53.0452 16.8192 52.9983 16.7429C52.9515 16.6666 52.8899 16.6003 52.8173 16.5479C52.7447 16.4955 52.6624 16.458 52.5753 16.4376C52.4881 16.4171 52.3977 16.4141 52.3094 16.4287C52.2211 16.4433 52.1365 16.4753 52.0605 16.5228C51.9846 16.5702 51.9188 16.6322 51.867 16.7052C51.8152 16.7782 51.7783 16.8608 51.7584 16.9481C51.7386 17.0354 51.7363 17.1258 51.7516 17.214L51.7444 17.2117Z" fill="white"/>
<path fill-rule="evenodd" clip-rule="evenodd" d="M27.8714 16.4746L37.9557 13.3936L48.265 16.5409C48.4376 16.5926 48.6236 16.5737 48.7824 16.4885C48.941 16.4032 49.0595 16.2586 49.1118 16.0862C49.1642 15.9139 49.1461 15.7278 49.0616 15.5687C48.9771 15.4096 48.833 15.2905 48.6608 15.2374L38.1535 12.0296C38.0246 11.9901 37.8867 11.9901 37.7577 12.0296L27.4745 15.1687C27.3885 15.1944 27.3085 15.2368 27.239 15.2935C27.1695 15.3502 27.1119 15.4201 27.0695 15.4991C27.027 15.5781 27.0006 15.6647 26.9918 15.754C26.9829 15.8433 26.9918 15.9334 27.0178 16.0192C27.0439 16.105 27.0866 16.1849 27.1436 16.2541C27.2006 16.3234 27.2707 16.3807 27.3499 16.4228C27.4291 16.4649 27.5159 16.4909 27.6052 16.4994C27.6944 16.5079 27.7845 16.4986 27.8703 16.4722L27.8714 16.4746Z" fill="white"/>
<path fill-rule="evenodd" clip-rule="evenodd" d="M22.8919 17.4107L37.3493 45.6283C37.4056 45.7386 37.4912 45.8313 37.5965 45.8964C37.7019 45.9615 37.823 45.9965 37.9469 45.9976C38.0707 45.9987 38.1924 45.9659 38.299 45.9026C38.4054 45.8394 38.4926 45.7482 38.5509 45.6389L47.3675 29.1495L47.3805 29.1234L53.0237 17.3918C53.1001 17.2299 53.1096 17.0443 53.05 16.8755C52.9905 16.7066 52.8667 16.5681 52.7055 16.49C52.5444 16.412 52.359 16.4006 52.1895 16.4586C52.0201 16.5165 51.8804 16.6389 51.8007 16.7993L46.1671 28.5214L37.9738 43.8554L24.0995 16.7898C24.0595 16.7094 24.004 16.6378 23.9361 16.5791C23.8682 16.5203 23.7894 16.4756 23.7041 16.4476C23.6188 16.4195 23.5289 16.4087 23.4394 16.4156C23.3499 16.4226 23.2627 16.4473 23.1828 16.4882C23.1029 16.5291 23.0319 16.5855 22.974 16.6541C22.916 16.7226 22.8722 16.802 22.8452 16.8876C22.8181 16.9731 22.8083 17.0632 22.8164 17.1526C22.8244 17.242 22.8501 17.329 22.8919 17.4084V17.4107Z" fill="white"/>
<path fill-rule="evenodd" clip-rule="evenodd" d="M29.8124 29.9771H45.8892C46.0692 29.9771 46.2417 29.9057 46.3689 29.7784C46.4961 29.6512 46.5676 29.4787 46.5676 29.2987C46.5676 29.1188 46.4961 28.9463 46.3689 28.819C46.2417 28.6918 46.0692 28.6203 45.8892 28.6203H29.8124C29.6324 28.6203 29.4599 28.6918 29.3327 28.819C29.2054 28.9463 29.134 29.1188 29.134 29.2987C29.134 29.4787 29.2054 29.6512 29.3327 29.7784C29.4599 29.9057 29.6324 29.9771 29.8124 29.9771Z" fill="white"/>
<path d="M109.937 32.2628V35.5839C109.939 35.8322 109.891 36.0782 109.796 36.3078C109.701 36.5374 109.563 36.7461 109.387 36.9216C109.211 37.0972 109.002 37.2363 108.773 37.3308C108.543 37.4254 108.297 37.4736 108.049 37.4726H106.318L109.875 41.6906H108.191L104.649 37.4726H100.49C100.284 37.4621 100.079 37.4412 99.8753 37.4097V41.6906H98.5954V30.374H108.039C108.288 30.373 108.533 30.4212 108.763 30.5158C108.993 30.6104 109.201 30.7494 109.377 30.925C109.553 31.1006 109.692 31.3092 109.786 31.5388C109.881 31.7684 109.929 32.0145 109.928 32.2628H109.937ZM100.494 36.1822H108.049C108.128 36.1832 108.206 36.1684 108.279 36.1386C108.352 36.1089 108.419 36.0649 108.474 36.0092C108.53 35.9534 108.574 35.887 108.604 35.814C108.634 35.741 108.648 35.6627 108.647 35.5839V32.2628C108.648 32.1828 108.634 32.1033 108.604 32.029C108.575 31.9547 108.53 31.887 108.474 31.8298C108.42 31.7713 108.354 31.7248 108.281 31.6936C108.207 31.6623 108.128 31.647 108.048 31.6485H100.493C100.33 31.6493 100.174 31.7143 100.059 31.8293C99.9443 31.9444 99.8793 32.1002 99.8785 32.2628V35.5839C99.8768 35.6637 99.8921 35.743 99.9234 35.8166C99.9546 35.8901 100.001 35.9562 100.06 36.0105C100.117 36.0665 100.185 36.1105 100.259 36.14C100.334 36.1695 100.414 36.1839 100.494 36.1822Z" fill="white"/>
<path fill-rule="evenodd" clip-rule="evenodd" d="M116.706 30.3579H128.035V31.6377H123.022V41.6958H121.742V31.6377H116.706V30.3579ZM134.901 41.6905V30.3579H136.181V41.6905H134.901ZM153.19 30.3579H154.828L150.09 36.0242L154.843 41.6905H153.19L148.972 36.6694H145.321V41.6905H144.032V30.3579H145.323V35.3779H148.975L153.19 30.3579Z" fill="white"/>
<path d="M73.5948 31.6334H64.1819C64.0193 31.6343 63.8635 31.6993 63.7484 31.8143C63.6334 31.9293 63.5685 32.0851 63.5676 32.2478V39.8028C63.5687 39.9654 63.6338 40.121 63.7488 40.2359C63.8637 40.351 64.0193 40.416 64.1819 40.4171H73.5948V41.6969H64.1819C63.9336 41.698 63.6875 41.65 63.4577 41.5555C63.2281 41.4609 63.0194 41.3219 62.8438 41.1462C62.6682 40.9706 62.5292 40.7619 62.4346 40.5323C62.3401 40.3026 62.292 40.0565 62.2932 39.8082V32.2531C62.292 32.0047 62.3401 31.7586 62.4346 31.529C62.5292 31.2993 62.6682 31.0906 62.8438 30.915C63.0194 30.7394 63.2281 30.6003 63.4577 30.5058C63.6875 30.4112 63.9336 30.3632 64.1819 30.3643H73.5948V31.6334Z" fill="white"/>
<path d="M91.2699 30.3579V31.6377H82.2047V35.3779H89.4909V36.6684H82.2036V40.415H91.2688V41.6948H80.9238V30.3579H91.2699Z" fill="white"/>
<path d="M75.5684 20.5571L78.1284 14.9571H78.7124L81.2724 20.5571H80.6484L78.2964 15.3011H78.5364L76.1844 20.5571H75.5684ZM76.5764 19.0611L76.7524 18.5811H80.0084L80.1844 19.0611H76.5764ZM86.4976 20.6051C85.7829 20.6051 85.2202 20.3998 84.8096 19.9891C84.3989 19.5785 84.1936 18.9705 84.1936 18.1651V14.9571H84.7856V18.1411C84.7856 18.8025 84.9349 19.2905 85.2336 19.6051C85.5322 19.9198 85.9536 20.0771 86.4976 20.0771C87.0469 20.0771 87.4709 19.9198 87.7696 19.6051C88.0682 19.2905 88.2176 18.8025 88.2176 18.1411V14.9571H88.7936V18.1651C88.7936 18.9705 88.5882 19.5785 88.1776 19.9891C87.7722 20.3998 87.2122 20.6051 86.4976 20.6051ZM92.7375 20.5571V14.9571H95.0175C95.6148 14.9571 96.1375 15.0771 96.5855 15.3171C97.0388 15.5518 97.3908 15.8798 97.6415 16.3011C97.8922 16.7225 98.0175 17.2078 98.0175 17.7571C98.0175 18.3065 97.8922 18.7918 97.6415 19.2131C97.3908 19.6345 97.0388 19.9651 96.5855 20.2051C96.1375 20.4398 95.6148 20.5571 95.0175 20.5571H92.7375ZM93.3295 20.0451H94.9855C95.4815 20.0451 95.9108 19.9491 96.2735 19.7571C96.6415 19.5598 96.9268 19.2905 97.1295 18.9491C97.3322 18.6025 97.4335 18.2051 97.4335 17.7571C97.4335 17.3038 97.3322 16.9065 97.1295 16.5651C96.9268 16.2238 96.6415 15.9571 96.2735 15.7651C95.9108 15.5678 95.4815 15.4691 94.9855 15.4691H93.3295V20.0451ZM101.507 20.5571V14.9571H102.099V20.5571H101.507ZM107.169 20.5571V15.4691H105.201V14.9571H109.729V15.4691H107.761V20.5571H107.169ZM113.363 17.4611H116.323V17.9651H113.363V17.4611ZM113.427 20.0451H116.795V20.5571H112.835V14.9571H116.675V15.4691H113.427V20.0451ZM120.346 20.5571V14.9571H122.626C123.224 14.9571 123.746 15.0771 124.194 15.3171C124.648 15.5518 125 15.8798 125.25 16.3011C125.501 16.7225 125.626 17.2078 125.626 17.7571C125.626 18.3065 125.501 18.7918 125.25 19.2131C125 19.6345 124.648 19.9651 124.194 20.2051C123.746 20.4398 123.224 20.5571 122.626 20.5571H120.346ZM120.938 20.0451H122.594C123.09 20.0451 123.52 19.9491 123.882 19.7571C124.25 19.5598 124.536 19.2905 124.738 18.9491C124.941 18.6025 125.042 18.2051 125.042 17.7571C125.042 17.3038 124.941 16.9065 124.738 16.5651C124.536 16.2238 124.25 15.9571 123.882 15.7651C123.52 15.5678 123.09 15.4691 122.594 15.4691H120.938V20.0451ZM133.369 20.5571V14.9571H135.785C136.409 14.9571 136.892 15.0825 137.233 15.3331C137.58 15.5838 137.753 15.9385 137.753 16.3971C137.753 16.7011 137.681 16.9571 137.537 17.1651C137.399 17.3731 137.207 17.5305 136.961 17.6371C136.721 17.7438 136.457 17.7971 136.169 17.7971L136.305 17.6051C136.663 17.6051 136.969 17.6611 137.225 17.7731C137.487 17.8798 137.689 18.0425 137.833 18.2611C137.977 18.4745 138.049 18.7411 138.049 19.0611C138.049 19.5358 137.873 19.9038 137.521 20.1651C137.175 20.4265 136.649 20.5571 135.945 20.5571H133.369ZM133.961 20.0691H135.937C136.428 20.0691 136.804 19.9865 137.065 19.8211C137.327 19.6505 137.457 19.3811 137.457 19.0131C137.457 18.6505 137.327 18.3865 137.065 18.2211C136.804 18.0505 136.428 17.9651 135.937 17.9651H133.897V17.4771H135.745C136.193 17.4771 136.54 17.3918 136.785 17.2211C137.036 17.0505 137.161 16.7971 137.161 16.4611C137.161 16.1198 137.036 15.8665 136.785 15.7011C136.54 15.5305 136.193 15.4451 135.745 15.4451H133.961V20.0691ZM142.779 20.5571V18.4771L142.915 18.8451L140.539 14.9571H141.171L143.259 18.3731H142.923L145.011 14.9571H145.603L143.227 18.8451L143.363 18.4771V20.5571H142.779Z" fill="white"/>
<path d="M65.888 13.8889L69.338 14.7514C69.5299 14.7996 69.6668 14.9909 69.6668 15.2124V19.9298C69.6668 20.8774 69.2456 21.7626 68.5449 22.2878L65.888 24.2807L63.231 22.2878C62.5298 21.7621 62.1091 20.8774 62.1091 19.9303V15.2124C62.1091 14.9909 62.246 14.7996 62.4379 14.7514L65.888 13.8889Z" fill="#7156FB"/>
<path d="M63.9971 18.7619L65.543 20.2194L68.2482 17.6687" stroke="white" stroke-width="1.3365"/>
</svg>

<svg xmlns="http://www.w3.org/2000/svg" width="177" height="58" fill="none" viewBox="0 0 177 58"><rect width="176.57" height="58" x=".43" fill="#7156FD" fill-opacity=".2" rx="29"/><path fill="#fff" fill-rule="evenodd" d="m51.744 17.212.18 1.082c.14 1.006.206 2.022.195 3.038a28 28 0 0 1-.807 6.665 25 25 0 0 1-3.717 8.278c-2.004 2.882-4.901 5.717-9.124 7.994l-.517.279-.517-.279c-4.223-2.277-7.119-5.112-9.124-7.994a25 25 0 0 1-3.717-8.278 28 28 0 0 1-.807-6.664c-.01-1.016.055-2.032.196-3.038l.179-1.082a.68.68 0 0 0-1.066-.666.68.68 0 0 0-.273.444l-.18 1.082a21.5 21.5 0 0 0-.214 3.26c.001 2.356.285 4.704.846 6.992a26.3 26.3 0 0 0 3.924 8.729c2.115 3.044 5.183 6.037 9.598 8.413l.839.452a.68.68 0 0 0 .643 0l.838-.452c4.41-2.377 7.48-5.37 9.598-8.413a26.3 26.3 0 0 0 3.92-8.728c.562-2.288.846-4.636.847-6.992.011-1.09-.06-2.18-.215-3.26l-.178-1.082a.678.678 0 1 0-1.34.222z" clip-rule="evenodd"/><path fill="#fff" fill-rule="evenodd" d="m27.871 16.475 10.085-3.081 10.309 3.147a.681.681 0 0 0 .396-1.304L38.154 12.03a.7.7 0 0 0-.396 0l-10.284 3.139a.68.68 0 1 0 .396 1.303z" clip-rule="evenodd"/><path fill="#fff" fill-rule="evenodd" d="m22.892 17.41 14.457 28.218a.677.677 0 0 0 1.202.01l8.816-16.488.014-.027 5.643-11.731a.68.68 0 0 0-1.223-.593l-5.634 11.722-8.193 15.334L24.1 16.79a.677.677 0 0 0-1.284.363.7.7 0 0 0 .076.255z" clip-rule="evenodd"/><path fill="#fff" fill-rule="evenodd" d="M29.812 29.977H45.89a.678.678 0 1 0 0-1.357H29.812a.678.678 0 1 0 0 1.357" clip-rule="evenodd"/><path fill="#fff" d="M109.937 32.263v3.32a1.88 1.88 0 0 1-1.888 1.889h-1.731l3.557 4.219h-1.684l-3.542-4.218h-4.159a6 6 0 0 1-.615-.063v4.28h-1.28V30.375h9.444a1.88 1.88 0 0 1 1.889 1.889zm-9.443 3.92h7.555a.59.59 0 0 0 .598-.6v-3.32a.6.6 0 0 0-.173-.433.56.56 0 0 0-.426-.181h-7.555a.62.62 0 0 0-.614.614v3.32a.56.56 0 0 0 .181.428.6.6 0 0 0 .434.171"/><path fill="#fff" fill-rule="evenodd" d="M116.706 30.358h11.329v1.28h-5.013v10.058h-1.28V31.638h-5.036zm18.195 11.333V30.358h1.28V41.69zm18.289-11.333h1.638l-4.738 5.666 4.753 5.666h-1.653l-4.218-5.02h-3.651v5.02h-1.289V30.359h1.291v5.02h3.652z" clip-rule="evenodd"/><path fill="#fff" d="M73.595 31.633h-9.413a.62.62 0 0 0-.614.615v7.555a.62.62 0 0 0 .614.614h9.413v1.28h-9.413a1.88 1.88 0 0 1-1.889-1.889v-7.555a1.88 1.88 0 0 1 1.889-1.889h9.413zm17.675-1.275v1.28h-9.065v3.74h7.286v1.29h-7.287v3.747h9.065v1.28H80.924V30.358zm-15.702-9.801 2.56-5.6h.584l2.56 5.6h-.624l-2.352-5.256h.24l-2.352 5.256zm1.008-1.496.176-.48h3.256l.176.48zm9.922 1.544q-1.073 0-1.688-.616-.616-.615-.616-1.824v-3.208h.592v3.184q0 .993.448 1.464.447.472 1.264.472.823 0 1.272-.472.447-.472.448-1.464v-3.184h.576v3.208q0 1.208-.616 1.824-.609.615-1.68.616m6.24-.048v-5.6h2.28q.896 0 1.567.36a2.6 2.6 0 0 1 1.056.984q.376.633.376 1.456 0 .825-.376 1.456-.375.632-1.056.992-.671.352-1.567.352zm.591-.512h1.657q.743 0 1.287-.288.552-.295.856-.808.304-.52.304-1.192.001-.68-.304-1.192a2.1 2.1 0 0 0-.856-.8q-.543-.296-1.287-.296h-1.657zm8.178.512v-5.6h.592v5.6zm5.662 0V15.47h-1.968v-.512h4.528v.512h-1.968v5.088zm6.194-3.096h2.96v.504h-2.96zm.064 2.584h3.368v.512h-3.96v-5.6h3.84v.512h-3.248zm6.919.512v-5.6h2.28q.897 0 1.568.36.681.353 1.056.984.376.633.376 1.456 0 .825-.376 1.456-.375.632-1.056.992-.671.352-1.568.352zm.592-.512h1.656q.745 0 1.288-.288.552-.295.856-.808.304-.52.304-1.192 0-.68-.304-1.192a2.1 2.1 0 0 0-.856-.8q-.543-.296-1.288-.296h-1.656zm12.431.512v-5.6h2.416q.936 0 1.448.376.52.375.52 1.064 0 .456-.216.768-.207.313-.576.472-.36.16-.792.16l.136-.192q.536 0 .92.168.393.16.608.488.216.32.216.8 0 .713-.528 1.104-.52.393-1.576.392zm.592-.488h1.976q.737 0 1.128-.248.392-.256.392-.808 0-.544-.392-.792-.392-.256-1.128-.256h-2.04v-.488h1.848q.672 0 1.04-.256.376-.256.376-.76 0-.511-.376-.76-.368-.255-1.04-.256h-1.784zm8.818.488v-2.08l.136.368-2.376-3.888h.632l2.088 3.416h-.336l2.088-3.416h.592l-2.376 3.888.136-.368v2.08z"/><path fill="#7156FB" d="m65.888 13.889 3.45.862c.192.049.329.24.329.461v4.718c0 .947-.421 1.833-1.122 2.358l-2.657 1.993-2.657-1.993c-.701-.526-1.122-1.41-1.122-2.358v-4.718c0-.221.137-.412.329-.46z"/><path stroke="#fff" stroke-width="1.337" d="m63.997 18.762 1.546 1.457 2.705-2.55"/></svg>
